assets/img/braze_icons/bold-02.svg

<svg fill="none" height="24" viewBox="0 0 24 24" width="24" xmlns="http://www.w3.org/2000/svg"><path clip-rule="evenodd" d="m3 4c0-.55228.44772-1 1-1h11.5c2.7614 0 5 2.23858 5 5 0 1.43071-.6009 2.7211-1.5641 3.6325 1.5298.855 2.5641 2.4905 2.5641 4.3675 0 2.7614-2.2386 5-5 5h-12.5c-.55228 0-1-.4477-1-1s.44772-1 1-1h1v-14h-1c-.55228 0-1-.44772-1-1zm7.5 1v6h5c1.6569 0 3-1.34315 3-3s-1.3431-3-3-3zm0 8v6h6c1.6569 0 3-1.3431 3-3s-1.3431-3-3-3z" fill="#801ed7" fill-rule="evenodd"/></svg>

<svg width="24" height="24" viewBox="0 0 24 24" fill="none" xmlns="http://www.w3.org/2000/svg">
<path fill-rule="evenodd" clip-rule="evenodd" d="M3 4C3 3.44772 3.44772 3 4 3H15.5C18.2614 3 20.5 5.23858 20.5 8C20.5 9.43071 19.8991 10.7211 18.9359 11.6325C20.4657 12.4875 21.5 14.123 21.5 16C21.5 18.7614 19.2614 21 16.5 21H4C3.44772 21 3 20.5523 3 20C3 19.4477 3.44772 19 4 19H5V5H4C3.44772 5 3 4.55228 3 4ZM10.5 5V11H15.5C17.1569 11 18.5 9.65685 18.5 8C18.5 6.34315 17.1569 5 15.5 5H10.5ZM10.5 13V19H16.5C18.1569 19 19.5 17.6569 19.5 16C19.5 14.3431 18.1569 13 16.5 13H10.5Z" fill="#801ED7"/>
</svg>
